X: 36
T:Gan Ainm 64
R:Slip Jig
S:[Man7.abc]
H:
N:
D:Irish Dancing Tape (P. Acc)
Z:Adrian Scahill
M:9/8
L:1/8
K:G
dBB dBc BAG|EAA cAB cde|dBB dBc BAG|A2B A2G FED:||\
EBB BcA Bcd|e2a abg fed|g2d BcA Bcd|e2E A2G FED:||
